images/coursera.svg

<svg width="1156" height="164" viewBox="0 0 1156 164" fill="none" xmlns="http://www.w3.org/2000/svg">
<path d="M159.75 81.5401C159.75 37.0501 196.38 1.07007 242.18 1.07007C288.3 1.07007 324.94 37.0701 324.94 81.5401C324.94 125.7 288.3 162.34 242.18 162.34C196.38 162.34 159.75 125.66 159.75 81.5401ZM285.36 81.5401C285.36 59.3001 266.06 39.6701 242.18 39.6701C218.63 39.6701 199.33 59.3001 199.33 81.5401C199.33 104.11 218.63 123.74 242.18 123.74C266.1 123.74 285.36 104.11 285.36 81.5401Z" fill="#0056D2"/>
<path d="M990.99 82.8501C990.99 34.1101 1030.57 1.07007 1066.56 1.07007C1091.09 1.07007 1105.16 8.59007 1114.64 22.9901L1118.41 3.99007H1155.2V159.39H1118.41L1113.66 143.39C1102.87 155.17 1089.45 162.39 1066.56 162.39C1031.23 162.34 990.99 131.26 990.99 82.8501ZM1116.6 82.5201C1116.56 71.1158 1111.98 60.1959 1103.89 52.1628C1095.79 44.1297 1084.84 39.6413 1073.44 39.6851C1062.03 39.7288 1051.11 44.3011 1043.08 52.3961C1035.04 60.4912 1030.56 71.4458 1030.6 82.8501C1030.6 104.44 1049.9 123.74 1073.46 123.74C1097.31 123.74 1116.6 104.44 1116.6 82.5201V82.5201Z" fill="#0056D2"/>
<path d="M945.78 22.0001V4.00011H905.55V159.39H945.78V75.6601C945.78 50.4701 958.22 37.3901 979.78 37.3901C981.21 37.3901 982.57 37.4901 983.9 37.6201L991.36 0.110107C970.39 0.220107 955.19 7.41011 945.78 22.0001Z" fill="#0056D2"/>
<path d="M541.51 22.01V4.01001L501.28 4.10001L501.62 159.47L541.85 159.38L541.63 75.66C541.57 50.48 553.98 37.37 575.56 37.32C576.937 37.324 578.312 37.4008 579.68 37.55L587.1 0C566.1 0.17 550.88 7.39001 541.51 22.01Z" fill="#0056D2"/>
<path d="M338.88 99.2V4.01001H379.1V94.3C379.1 114.25 390.22 126.03 409.52 126.03C431.11 126.03 443.52 112.94 443.52 87.75V4.01001H483.76V159.39H443.55V141.39C434.07 156.11 418.69 163.31 397.43 163.31C361.45 163.32 338.88 137.15 338.88 99.2Z" fill="#0056D2"/>
<path d="M730.62 81.72C730.71 38.21 761.85 0.979987 811.24 1.06999C857.04 1.15999 889.35 37.85 889.24 81.07C889.248 85.3432 888.914 89.6101 888.24 93.83L769.83 93.61C774.37 112.26 789.72 125.7 812.95 125.75C827.01 125.75 842.07 120.57 851.25 108.81L878.69 130.81C864.58 150.74 839.69 162.47 813.21 162.42C766.46 162.26 730.54 127.19 730.62 81.72ZM848.74 65.58C846.48 49.88 830.15 37.74 810.85 37.71C792.2 37.71 777.14 48.77 771.22 65.44L848.74 65.58Z" fill="#0056D2"/>
<path d="M587.34 125.52L623.1 106.8C629.01 119.61 640.83 127.16 657.58 127.16C673.01 127.16 678.92 122.24 678.92 115.34C678.92 90.3401 594.21 105.49 594.21 48.3401C594.21 16.8201 621.79 0.0800781 655.93 0.0800781C681.87 0.0800781 704.85 11.5701 717.33 32.9101L681.89 51.6601C676.64 41.1501 666.79 35.2401 654.31 35.2401C642.17 35.2401 636.25 39.5101 636.25 46.7301C636.25 71.0301 720.96 55.6001 720.96 113.73C720.96 143.94 696.34 162.32 656.61 162.32C622.79 162.29 599.15 151.13 587.34 125.52Z" fill="#0056D2"/>
<path d="M0 81.5401C0 36.7301 36.63 0.740076 82.43 0.740076C96.2008 0.643555 109.779 3.97498 121.942 10.4341C134.104 16.8933 144.468 26.2771 152.1 37.7401L117.76 57.6601C113.787 51.9821 108.498 47.3502 102.346 44.16C96.1932 40.9698 89.3602 39.316 82.43 39.3401C58.88 39.3401 39.58 58.9701 39.58 81.5401C39.58 104.11 58.88 123.74 82.43 123.74C89.687 123.787 96.835 121.974 103.192 118.472C109.548 114.971 114.901 109.899 118.74 103.74L152.74 124.02C145.201 135.818 134.798 145.516 122.501 152.209C110.203 158.903 96.411 162.374 82.41 162.3C36.63 162.34 0 125.66 0 81.5401Z" fill="#0056D2"/>
</svg>

<?xml version="1.0" encoding="utf-8"?>
<!-- Generator: Adobe Illustrator 16.2.0, SVG Export Plug-In . SVG Version: 6.00 Build 0)  -->
<!DOCTYPE svg PUBLIC "-//W3C//DTD SVG 1.1//EN" "http://www.w3.org/Graphics/SVG/1.1/DTD/svg11.dtd">
<svg viewBox="0 0 1155 164" xmlns="http://www.w3.org/2000/svg" fill-rule="evenodd" clip-rule="evenodd" stroke-linejoin="round" stroke-miterlimit="2"><path d="M159.75 81.54c0-44.49 36.63-80.47 82.43-80.47 46.12 0 82.76 36 82.76 80.47 0 44.16-36.64 80.8-82.76 80.8-45.8 0-82.43-36.68-82.43-80.8zm125.61 0c0-22.24-19.3-41.87-43.18-41.87-23.55 0-42.85 19.63-42.85 41.87 0 22.57 19.3 42.2 42.85 42.2 23.92 0 43.18-19.63 43.18-42.2zm705.63 1.31c0-48.74 39.58-81.78 75.57-81.78 24.53 0 38.6 7.52 48.08 21.92l3.77-19h36.79v155.4h-36.79l-4.75-16c-10.79 11.78-24.21 19-47.1 19-35.33-.05-75.57-31.13-75.57-79.54zm125.61-.33c-.09-23.527-19.47-42.835-43-42.835-23.59 0-43 19.411-43 43v.165c0 21.59 19.3 40.89 42.86 40.89 23.85 0 43.14-19.3 43.14-41.22zM945.78 22V4h-40.23v155.39h40.23V75.66c0-25.19 12.44-38.27 34-38.27 1.43 0 2.79.1 4.12.23L991.36.11c-20.97.11-36.17 7.3-45.58 21.89zm-404.27.01v-18l-40.23.09.34 155.37 40.23-.09-.22-83.72c-.06-25.18 12.35-38.29 33.93-38.34 1.376.004 2.752.081 4.12.23L587.1 0c-21 .17-36.22 7.39-45.59 22.01zM338.88 99.2V4.01h40.22V94.3c0 19.95 11.12 31.73 30.42 31.73 21.59 0 34-13.09 34-38.28V4.01h40.24v155.38h-40.21v-18c-9.48 14.72-24.86 21.92-46.12 21.92-35.98.01-58.55-26.16-58.55-64.11zm391.74-17.48c.09-43.51 31.23-80.74 80.62-80.65 45.8.09 78.11 36.78 78 80 .01 4.273-.33 8.54-1 12.76l-118.41-.22c4.54 18.65 19.89 32.09 43.12 32.14 14.06 0 29.12-5.18 38.3-16.94l27.44 22c-14.11 19.93-39 31.66-65.48 31.61-46.75-.16-82.67-35.23-82.59-80.7zm118.12-16.14c-2.26-15.7-18.59-27.84-37.89-27.87-18.65 0-33.71 11.06-39.63 27.73l77.52.14zm-261.4 59.94l35.76-18.72c5.91 12.81 17.73 20.36 34.48 20.36 15.43 0 21.34-4.92 21.34-11.82 0-25-84.71-9.85-84.71-67 0-31.52 27.58-48.26 61.72-48.26 25.94 0 48.92 11.49 61.4 32.83l-35.44 18.75c-5.25-10.51-15.1-16.42-27.58-16.42-12.14 0-18.06 4.27-18.06 11.49 0 24.3 84.71 8.87 84.71 67 0 30.21-24.62 48.59-64.35 48.59-33.82-.03-57.46-11.19-69.27-36.8zM0 81.54C0 36.73 36.63.74 82.43.74c27.947-.196 54.182 13.737 69.67 37l-34.34 19.92a42.972 42.972 0 00-35.33-18.32c-23.55 0-42.85 19.63-42.85 42.2 0 22.57 19.3 42.2 42.85 42.2a42.502 42.502 0 0036.31-20l34 20.28c-15.307 23.955-41.902 38.431-70.33 38.28C36.63 162.34 0 125.66 0 81.54z" fill="#0056D2" fill-rule="nonzero"/></svg>
